symbolic/22x22/places/folder-palebrown-mail-cloud.svg

<svg xmlns="http://www.w3.org/2000/svg" width="22" height="22" version="1">
 <rect style="opacity:0.2" width="20" height="12" x="1" y="8.5" rx="1" ry="1"/>
 <path style="fill:#bea389" d="M 1,16 C 1,16.554 1.446,17 2,17 H 20 C 20.554,17 21,16.554 21,16 V 5 C 21,4.446 20.554,4 20,4 H 11 C 9.5,4 9,2 7.5,2 H 2 C 1.446,2 1,2.446 1,3"/>
 <rect style="opacity:0.2" width="20" height="12" x="1" y="7.5" rx="1" ry="1"/>
 <rect style="fill:#e4e4e4" width="16" height="8" x="3" y="6" rx="1" ry="1"/>
 <rect style="fill:#d1bfae" width="20" height="12" x="1" y="8" rx="1" ry="1"/>
 <path style="opacity:0.1;fill:#ffffff" d="M 2,2 C 1.446,2 1,2.446 1,3 V 3.5 C 1,2.946 1.446,2.5 2,2.5 H 7.5 C 9,2.5 9.5,4.5 11,4.5 H 20 C 20.554,4.5 21,4.946 21,5.5 V 5 C 21,4.446 20.554,4 20,4 H 11 C 9.5,4 9,2 7.5,2 Z"/>
 <path style="fill:#a38d7b" d="M 10.733,11 A 2.6667,2.7273 0 0 0 8.2097,12.853 2.1333,2.1818 0 0 0 7.0001,14.818 2.1333,2.1818 0 0 0 9.1334,17 2.1333,2.1818 0 0 0 10.551,16.445 2.6667,2.7273 0 0 0 10.733,16.455 2.6667,2.7273 0 0 0 11.86,16.195 2.1333,2.1818 0 0 0 12.867,16.455 2.1333,2.1818 0 0 0 15,14.273 2.1333,2.1818 0 0 0 12.866,12.091 2.1333,2.1818 0 0 0 12.862,12.091 2.6667,2.7273 0 0 0 10.733,11 Z"/>
</svg>

<svg xmlns="http://www.w3.org/2000/svg" width="22" height="22" version="1"><rect style="opacity:.2" width="20" height="12" x="1" y="8.5" rx="1" ry="1"/><path style="fill:#bea389" d="M1 16c0 .554.446 1 1 1h18c.554 0 1-.446 1-1V5c0-.554-.446-1-1-1h-9C9.5 4 9 2 7.5 2H2c-.554 0-1 .446-1 1"/><rect style="opacity:.2" width="20" height="12" x="1" y="7.5" rx="1" ry="1"/><rect style="fill:#e4e4e4" width="16" height="8" x="3" y="6" rx="1" ry="1"/><rect style="fill:#d1bfae" width="20" height="12" x="1" y="8" rx="1" ry="1"/><path style="opacity:.1;fill:#fff" d="M2 2c-.554 0-1 .446-1 1v.5c0-.554.446-1 1-1h5.5c1.5 0 2 2 3.5 2h9c.554 0 1 .446 1 1V5c0-.554-.446-1-1-1h-9C9.5 4 9 2 7.5 2z"/><path style="fill:#a38d7b" d="M10.733 11a2.667 2.727 0 0 0-2.523 1.853A2.133 2.182 0 0 0 7 14.818 2.133 2.182 0 0 0 9.133 17a2.133 2.182 0 0 0 1.418-.555 2.667 2.727 0 0 0 .182.01 2.667 2.727 0 0 0 1.127-.26 2.133 2.182 0 0 0 1.007.26A2.133 2.182 0 0 0 15 14.273a2.133 2.182 0 0 0-2.134-2.182 2.133 2.182 0 0 0-.004 0A2.667 2.727 0 0 0 10.733 11z"/></svg>
